X:1
%
T:New Christenmiss Day
M:C|
L:1/8
R:Reel
S:William Vickers' 1770 music manuscript collection (Northumberland)
Z:AK/Fiddler's Companion
K:G
d|B2 GB dgdB|g2 a/g/f/e/ aAAd|B2 GB dgdB|cA d/c/B/A/ BGG:|
|:d|BGdB ecdB|GB dB eAAd|BGdB ecdB|Agfa gGGD|
B,A,/G,/ DG, EG,DG,|B,A,/G,/ DG, EG,G,D|B,A,/G,/ DG, EG,DG,|EGFA GG,G,:|]

